svg/material-icons/egg/materialiconstwotone/20px.svg

<svg xmlns="http://www.w3.org/2000/svg" width="20" height="20" viewBox="0 0 20 20"><path d="M10 4.5c-1.54 0-4 3.85-4 7.06 0 2.17 1.79 3.94 4 3.94s4-1.77 4-3.94c0-3.21-2.46-7.06-4-7.06zm.25 10C8.37 14.5 7 12.92 7 10.75c0-.41.34-.75.75-.75s.75.34.75.75c0 1.12.54 2.25 1.75 2.25.41 0 .75.34.75.75s-.34.75-.75.75z" opacity=".3"/><path d="M10 3c-2.75 0-5.5 4.93-5.5 8.56 0 3 2.46 5.44 5.5 5.44s5.5-2.44 5.5-5.44C15.5 7.93 12.75 3 10 3zm0 12.5c-2.21 0-4-1.77-4-3.94 0-3.2 2.46-7.06 4-7.06s4 3.85 4 7.06c0 2.17-1.79 3.94-4 3.94z"/><path d="M10.25 13c-1.21 0-1.75-1.13-1.75-2.25 0-.41-.34-.75-.75-.75s-.75.34-.75.75c0 2.17 1.37 3.75 3.25 3.75.41 0 .75-.34.75-.75s-.34-.75-.75-.75z"/></svg>

<svg xmlns="http://www.w3.org/2000/svg" enable-background="new 0 0 20 20" height="20" viewBox="0 0 20 20" width="20"><g><rect fill="none" height="20" width="20"/></g><g><g><path d="M10,4.5c-1.54,0-4,3.85-4,7.06c0,2.17,1.79,3.94,4,3.94s4-1.77,4-3.94C14,8.35,11.54,4.5,10,4.5z M10.25,14.5C8.37,14.5,7,12.92,7,10.75C7,10.34,7.34,10,7.75,10s0.75,0.34,0.75,0.75c0,1.12,0.54,2.25,1.75,2.25 c0.41,0,0.75,0.34,0.75,0.75S10.66,14.5,10.25,14.5z" opacity=".3"/><path d="M10,3c-2.75,0-5.5,4.93-5.5,8.56C4.5,14.56,6.96,17,10,17c3.04,0,5.5-2.44,5.5-5.44C15.5,7.93,12.75,3,10,3z M10,15.5 c-2.21,0-4-1.77-4-3.94c0-3.2,2.46-7.06,4-7.06c1.54,0,4,3.85,4,7.06C14,13.73,12.21,15.5,10,15.5z"/><path d="M10.25,13c-1.21,0-1.75-1.13-1.75-2.25C8.5,10.34,8.16,10,7.75,10S7,10.34,7,10.75c0,2.17,1.37,3.75,3.25,3.75 c0.41,0,0.75-0.34,0.75-0.75S10.66,13,10.25,13z"/></g></g></svg>
